fs/arrow_export_rtl_24_regular.svg

<svg viewBox="0 0 24 24" fill="none" xmlns="http://www.w3.org/2000/svg" height="1em" width="1em">
  <path d="M21.2446 4.5C20.8649 4.5 20.5511 4.78227 20.5015 5.14836L20.4947 5.25014L20.4971 18.2542C20.4971 18.6684 20.833 19.0041 21.2472 19.0041C21.6269 19.0041 21.9406 18.7218 21.9902 18.3557L21.9971 18.2539L21.9947 5.24986C21.9946 4.83565 21.6588 4.5 21.2446 4.5ZM8.34997 6.30373L8.27735 6.21961C8.01105 5.95338 7.59439 5.92921 7.3008 6.1471L7.21669 6.21972L2.22007 11.2174C1.95398 11.4835 1.92968 11.8999 2.14724 12.1935L2.21976 12.2776L7.21638 17.2811C7.50907 17.5742 7.98394 17.5745 8.27704 17.2818C8.54349 17.0157 8.56798 16.5991 8.35032 16.3053L8.27776 16.2211L4.56707 12.504L18.2441 12.5049C18.6238 12.5049 18.9376 12.2228 18.9873 11.8567L18.9941 11.7549C18.9941 11.3753 18.712 11.0615 18.3459 11.0118L18.2441 11.0049L4.55407 11.004L8.27746 7.28028C8.54369 7.01398 8.56786 6.59732 8.34997 6.30373L8.27735 6.21961L8.34997 6.30373Z" fill="#212121"/>
</svg>

<svg viewBox="0 0 24 24" fill="none" xmlns="http://www.w3.org/2000/svg" height="1em" width="1em">
  <path d="M21.245 4.5a.75.75 0 0 0-.744.648l-.006.102.002 13.004a.75.75 0 0 0 1.493.102l.007-.102-.002-13.004a.75.75 0 0 0-.75-.75ZM8.35 6.304l-.073-.084a.75.75 0 0 0-.976-.073l-.084.073-4.997 4.997a.75.75 0 0 0-.073.976l.073.085 4.996 5.003a.75.75 0 0 0 1.134-.976l-.072-.084-3.71-3.717h13.676a.75.75 0 0 0 .743-.647l.007-.102a.75.75 0 0 0-.648-.743l-.102-.007-13.69-.001L8.277 7.28a.75.75 0 0 0 .073-.976l-.073-.084.073.084Z" fill="#212121"/>
</svg>
